src/pos-icons/head-check-outline.svg

<svg height="24" viewBox="0 0 24 24" width="24" xmlns="http://www.w3.org/2000/svg"><path d="m13 3c3.88 0 7 3.14 7 7 0 2.8-1.63 5.19-4 6.31v4.69h-7v-3h-1c-1.11 0-2-.89-2-2v-3h-1.5c-.42 0-.66-.5-.42-.81l1.92-2.53c.19-3.71 3.23-6.66 7-6.66m0-2c-4.58 0-8.39 3.43-8.94 7.91l-1.56 2.09c-.58.72-.68 1.72-.26 2.59.36.72 1 1.21 1.76 1.36v1.05c0 1.86 1.28 3.43 3 3.87v3.13h11v-5.53c2.5-1.64 4-4.41 4-7.47 0-4.96-4.04-9-9-9m-.53 12-3.47-3.5 1.4-1.41 2.07 2.08 4.13-4.17 1.4 1.41z"/></svg>

<?xml version="1.0" encoding="UTF-8"?><!DOCTYPE svg PUBLIC "-//W3C//DTD SVG 1.1//EN" "http://www.w3.org/Graphics/SVG/1.1/DTD/svg11.dtd"><svg xmlns="http://www.w3.org/2000/svg" xmlns:xlink="http://www.w3.org/1999/xlink" version="1.1" id="mdi-head-check-outline" width="24" height="24" viewBox="0 0 24 24"><path d="M13 3C16.88 3 20 6.14 20 10C20 12.8 18.37 15.19 16 16.31V21H9V18H8C6.89 18 6 17.11 6 16V13H4.5C4.08 13 3.84 12.5 4.08 12.19L6 9.66C6.19 5.95 9.23 3 13 3M13 1C8.42 1 4.61 4.43 4.06 8.91L2.5 11C1.92 11.72 1.82 12.72 2.24 13.59C2.6 14.31 3.24 14.8 4 14.95V16C4 17.86 5.28 19.43 7 19.87V23H18V17.47C20.5 15.83 22 13.06 22 10C22 5.04 17.96 1 13 1M12.47 13L9 9.5L10.4 8.09L12.47 10.17L16.6 6L18 7.41L12.47 13Z" /></svg>
